X:1
T:Strathmore's Reel
M:C|
L:1/8
R:Reel
B:David Young - The Drummond Castle Manuscript, Part 2 (1734, No. 26)
B: https://www.cl.cam.ac.uk/~rja14/musicfiles/manuscripts/drummond2.pdf
Z:AK/Fiddler's Companion
K:G
g|d/d/d dB GABd|e/e/e ed ABdg|d/d/d dB GABd|e/e/e gB TA2G:|
|:d|g/g/g ge degd|a/a/a ag egab|g/g/g ge dega|e/e/e gB TA2G:|]

